icons/svgs/arrow-up-arrow-down-outline.svg

<svg width="24" height="24" viewBox="0 0 24 24" fill="none" xmlns="http://www.w3.org/2000/svg">
<path d="M21.9141 16.7266L18.1641 20.4766C17.7734 20.8672 17.1875 20.8672 16.8359 20.4766L13.0859 16.7266C12.6953 16.375 12.6953 15.7891 13.0859 15.4375C13.4375 15.0469 14.0234 15.0469 14.4141 15.4375L16.5625 17.5859V4.1875C16.5625 3.67969 16.9531 3.25 17.5 3.25C18.0078 3.25 18.4375 3.67969 18.4375 4.1875V17.5859L20.5859 15.4375C20.9375 15.0469 21.5234 15.0469 21.9141 15.4375C22.2656 15.7891 22.2656 16.375 21.9141 16.7266ZM8.16406 3.52344L11.875 7.27344C12.2656 7.66406 12.2656 8.25 11.875 8.60156C11.5234 8.99219 10.9375 8.99219 10.5469 8.60156L8.39844 6.45312V19.8125C8.39844 20.3594 8.00781 20.75 7.46094 20.75C6.95312 20.75 6.52344 20.3594 6.52344 19.8125V6.45312L4.375 8.60156C4.02344 8.99219 3.4375 8.99219 3.08594 8.60156C2.69531 8.25 2.69531 7.66406 3.08594 7.27344L6.83594 3.52344C7.1875 3.17188 7.77344 3.17188 8.16406 3.52344Z" fill="black"/>
</svg>

<svg xmlns="http://www.w3.org/2000/svg" width="24" height="24" fill="currentColor" class="icon-arrow-up-arrow-down-outline" viewBox="0 0 24 24">
  <mask id="a" width="21" height="18" x="2" y="3" maskUnits="userSpaceOnUse" style="mask-type:alpha">
    <path d="m21.914 16.727-3.75 3.75c-.39.39-.977.39-1.328 0l-3.75-3.75a.856.856 0 0 1 0-1.29c.351-.39.937-.39 1.328 0l2.149 2.149V4.188c0-.508.39-.938.937-.938a.95.95 0 0 1 .938.938v13.398l2.148-2.148c.352-.391.937-.391 1.328 0a.92.92 0 0 1 0 1.289M8.164 3.523l3.711 3.75c.39.391.39.977 0 1.329-.352.39-.937.39-1.328 0L8.398 6.453v13.36c0 .546-.39.937-.937.937a.925.925 0 0 1-.938-.937V6.453L4.375 8.602a.855.855 0 0 1-1.29 0c-.39-.352-.39-.938 0-1.329l3.75-3.75c.353-.351.938-.351 1.33 0"/>
  </mask>
  <g mask="url(#a)">
    <path d="M0 0h24v24H0z"/>
  </g>
</svg>
